X:1
T: Haggs Castle
C:Carl Volti
R:Reel
Q: 232
K:D
M:4/4
L:1/8
|:g|fd Bd A2 FB|A2 FB AB cd|eA fA eA A1/2A1/2A|e^d ef ge ag|
fd Bd A2 FB|A2 FB AB cd|eA fA eA A1/2A1/2A|e^d ef ge ag|
fa a1/2a1/2a af de|fa a1/2a1/2a af df|eg g1/2g1/2g ge cd|ef ge cb ag|
fa a1/2a1/2a af de|fa a1/2a1/2a af df|eg g1/2g1/2g ge cd|ef ge cb a:|
